X:53
T:Isle of France
O:No 53 Wm Clarke MS  Feltwell, Norfolk
I:abc2nwc
M:2/4
L:1/16
K:G
Bc|d2 Bc d2g2|e4c4|A2A2 d2d2|cBAB G2Bc|
d2Bc d2g2|e4a4|gfed e2f2|g2b2g2:|
|:B2|c2a2a2c2|B2g2g2d2|e2d2c2B2|A2A2 A2B2|
c2a2a2c2|B2g2g3a|gfed e2f2|g2b2g2:|
|:d2|b6a2|g6f2|e2d2c2B2|A2A2A2a2|
c'6b2|a6g2|gfed e2 f2|g6:|

